media/vendor_logos/Subway.svg

<?xml version="1.0" encoding="UTF-8" standalone="no" ?>
<!DOCTYPE svg PUBLIC "-//W3C//DTD SVG 1.1//EN" "http://www.w3.org/Graphics/SVG/1.1/DTD/svg11.dtd">
<svg xmlns="http://www.w3.org/2000/svg" xmlns:xlink="http://www.w3.org/1999/xlink" version="1.1" width="1080" height="1080" viewBox="0 0 1080 1080" xml:space="preserve">
<desc>Created with Fabric.js 5.2.4</desc>
<defs>
</defs>
<g transform="matrix(1 0 0 1 540 540)" id="d5a8f311-a402-4527-a263-e23b5245cd9b"  >
<rect style="stroke: none; stroke-width: 1; stroke-dasharray: none; stroke-linecap: butt; stroke-dashoffset: 0; stroke-linejoin: miter; stroke-miterlimit: 4; fill: rgb(255,255,255); fill-rule: nonzero; opacity: 1; visibility: hidden;" vector-effect="non-scaling-stroke"  x="-540" y="-540" rx="0" ry="0" width="1080" height="1080" />
</g>
<g transform="matrix(1 0 0 1 540 540)" id="a75fa34a-b7f6-4f90-8170-d0d43d6e26c3"  >
</g>
<g transform="matrix(0.34 0 0 0.34 540 540)"  >
<g style="" vector-effect="non-scaling-stroke"   >
		<g transform="matrix(3.24 0 0 3.24 0 0)"  >
<path style="stroke: none; stroke-width: 1; stroke-dasharray: none; stroke-linecap: butt; stroke-dashoffset: 0; stroke-linejoin: miter; stroke-miterlimit: 4; fill: rgb(0,85,67); fill-rule: nonzero; opacity: 1;" vector-effect="non-scaling-stroke"  transform=" translate(-386, -111)" d="M 653.483 159.389 C 662.8019999999999 159.389 670.606 166.99800000000002 670.606 176.352 C 670.606 185.701 663.019 193.314 653.483 193.314 L 653.7009999999999 193.314 L 647.2019999999999 193.53199999999998 L 638.0939999999999 193.53199999999998 L 526.8969999999999 193.749 C 525.164 193.749 523.8629999999999 192.228 524.2969999999999 190.487 L 528.8419999999999 172.436 L 524.5069999999998 172.436 L 513.4549999999998 192.87900000000002 C 513.2379999999998 193.531 511.9399999999998 194.18400000000003 511.2919999999998 194.18400000000003 L 347.20699999999977 194.40000000000003 C 345.68799999999976 194.40000000000003 344.6009999999998 193.09500000000003 344.8219999999998 191.57300000000004 L 346.3329999999998 176.35100000000003 C 329.6489999999998 190.70300000000003 306.6689999999998 193.96500000000003 293.0109999999998 193.96500000000003 L 225.8179999999998 193.96500000000003 C 223.86799999999982 193.96500000000003 222.78399999999982 192.44300000000004 223.43299999999982 190.48600000000002 L 225.8179999999998 183.311 C 214.76599999999982 191.573 200.0249999999998 197.66400000000002 180.0859999999998 197.66400000000002 C 156.67799999999983 197.66400000000002 142.80299999999983 188.96300000000002 136.9529999999998 175.48000000000002 C 122.6459999999998 189.39800000000002 100.7529999999998 197.44600000000003 78.8559999999998 197.44600000000003 C 72.1399999999998 197.44600000000003 65.4189999999998 196.79300000000003 59.133999999999794 195.27100000000002 L 51.11299999999979 220.06400000000002 C 50.242999999999796 222.45300000000003 47.85799999999979 222.669 46.559999999999796 220.496 L 0.392 145.688 C -0.482 144.38199999999998 0.17 142.642 1.69 141.98999999999998 L 68.669 114.36899999999999 C 68.452 113.93499999999999 68.234 113.28599999999999 68.017 112.85099999999998 C 64.548 103.93199999999999 63.9 88.92699999999999 66.067 79.356 C 69.53599999999999 64.56899999999999 87.957 27.815999999999995 137.165 29.990999999999993 C 147.137 30.42599999999999 160.143 34.55899999999999 168.81199999999998 39.343999999999994 L 171.41099999999997 33.035999999999994 C 171.84599999999998 32.166 172.92999999999998 31.295999999999996 174.01699999999997 31.295999999999996 L 330.94599999999997 30.860999999999997 C 341.56699999999995 30.860999999999997 353.05699999999996 33.254 361.72299999999996 39.126999999999995 L 362.37499999999994 33.68899999999999 C 362.37499999999994 32.38399999999999 363.67299999999994 31.513999999999992 364.75699999999995 31.513999999999992 L 644.155 31.513999999999992 C 645.461 31.513999999999992 646.5409999999999 32.60199999999999 646.762 33.90699999999999 L 650.231 61.52399999999999 C 661.282 49.56499999999998 670.169 42.17299999999999 681.442 36.51699999999998 C 690.331 31.948999999999984 701.385 31.078999999999983 708.754 30.86199999999998 L 712.441 30.86199999999998 L 721.76 1.94 C 722.409 -0.45299999999999985 725.011 -0.6699999999999999 726.309 1.505 L 771.61 75.011 C 772.48 76.533 771.828 78.056 770.309 78.70899999999999 L 691.6279999999999 110.45899999999999 C 689.2429999999999 111.54599999999999 687.507 109.80599999999998 688.1589999999999 107.41399999999999 L 690.5439999999999 100.01799999999999 C 685.1259999999999 105.45599999999999 679.4929999999998 111.98099999999998 673.8529999999998 119.37299999999999 C 666.2709999999998 129.379 656.7339999999998 149.387 654.1279999999998 156.99599999999998 L 653.4789999999998 158.95299999999997" stroke-linecap="round" />
</g>
		<g transform="matrix(3.24 0 0 3.24 928.67 -21.83)"  >
<path style="stroke: none; stroke-width: 1; stroke-dasharray: none; stroke-linecap: butt; stroke-dashoffset: 0; stroke-linejoin: miter; stroke-miterlimit: 4; fill: rgb(255,242,0); fill-rule: nonzero; opacity: 1;" vector-effect="non-scaling-stroke"  transform=" translate(-672.77, -104.26)" d="M 711.789 73.706 L 706.588 90.668 L 754.492 71.313 L 727.183 26.947000000000003 L 721.764 43.910000000000004 C 721.764 43.910000000000004 699.436 41.739000000000004 687.301 47.825 C 677.1120000000001 53.04600000000001 669.09 59.571000000000005 657.604 72.183 C 651.75 78.49100000000001 641.3470000000001 93.93100000000001 641.3470000000001 93.93100000000001 L 634.8450000000001 43.91000000000001 L 599.9430000000001 43.91000000000001 L 611.8650000000001 121.983 L 591.0550000000002 181.572 L 632.2430000000002 181.572 C 632.2430000000002 181.572 641.3470000000002 155.473 642.2110000000001 152.868 C 645.0300000000001 144.388 655.2160000000001 122.85799999999999 663.6680000000001 111.764 C 678.6270000000001 92.191 696.8340000000001 73.27099999999999 711.7890000000001 73.70599999999999" stroke-linecap="round" />
</g>
		<g transform="matrix(3.24 0 0 3.24 -571.2 13.02)"  >
<path style="stroke: none; stroke-width: 1; stroke-dasharray: none; stroke-linecap: butt; stroke-dashoffset: 0; stroke-linejoin: miter; stroke-miterlimit: 4; fill: rgb(255,255,255); fill-rule: nonzero; opacity: 1;" vector-effect="non-scaling-stroke"  transform=" translate(-209.61, -115.02)" d="M 236.227 45.214 L 207.39600000000002 131.77100000000002 C 206.091 135.24800000000002 204.79000000000002 139.81500000000003 202.40900000000002 143.73000000000002 C 200.24500000000003 147.42800000000003 196.99 150.251 191.57100000000003 150.251 C 186.58400000000003 150.251 185.28600000000003 147.428 185.28600000000003 143.513 C 185.50400000000002 139.815 187.24000000000004 135.247 188.53800000000004 131.549 L 217.36800000000005 45.21400000000001 L 180.30300000000005 45.21400000000001 L 150.17500000000007 135.03000000000003 C 144.75600000000006 151.55700000000002 137.16900000000007 184.83000000000004 180.08500000000006 184.83000000000004 C 223.00500000000005 184.83000000000004 237.73800000000006 151.55800000000005 243.37900000000008 135.03000000000003 L 273.29300000000006 45.21400000000003 L 236.22700000000006 45.21400000000003" stroke-linecap="round" />
</g>
		<g transform="matrix(3.24 0 0 3.24 294.12 6.34)"  >
<path style="stroke: none; stroke-width: 1; stroke-dasharray: none; stroke-linecap: butt; stroke-dashoffset: 0; stroke-linejoin: miter; stroke-miterlimit: 4; fill: rgb(255,242,0); fill-rule: nonzero; opacity: 1;" vector-effect="non-scaling-stroke"  transform=" translate(-476.82, -112.96)" d="M 455.367 181.571 L 528.6320000000001 44.12700000000001 L 492.65 44.12700000000001 L 452.546 129.37900000000002 C 454.278 119.37300000000002 467.284 44.127000000000024 467.284 44.127000000000024 L 435.42 44.127000000000024 C 435.42 44.127000000000024 398.571 119.80800000000002 394.236 130.031 L 410.493 44.12700000000001 L 373.86199999999997 44.12700000000001 L 358.68499999999995 181.571 L 394.6669999999999 181.571 L 434.3349999999999 95.67099999999999 C 432.3859999999999 105.02099999999999 419.37999999999994 181.571 419.37999999999994 181.571 L 455.36699999999996 181.571 M 531.666 131.336 L 550.3080000000001 131.336 L 558.5430000000001 81.09700000000001 L 531.6660000000002 131.336 M 544.4530000000002 44.12700000000001 L 594.9600000000002 44.12700000000001 L 578.7030000000002 181.78900000000002 L 539.6830000000002 181.78900000000002 L 544.6700000000002 159.60500000000002 L 517.1410000000002 159.60500000000002 L 505.2200000000002 181.353 L 470.7570000000002 181.353 L 544.4530000000002 44.12700000000001 z" stroke-linecap="round" />
</g>
		<g transform="matrix(3.24 0 0 3.24 -633.51 25.57)"  >
<path style="stroke: none; stroke-width: 1; stroke-dasharray: none; stroke-linecap: butt; stroke-dashoffset: 0; stroke-linejoin: miter; stroke-miterlimit: 4; fill: rgb(255,255,255); fill-rule: nonzero; opacity: 1;" vector-effect="non-scaling-stroke"  transform=" translate(-190.37, -118.89)" d="M 45.697 195.054 L 17.515000000000004 149.169 L 67.155 128.727 L 61.732 145.907 C 67.807 149.818 74.959 150.906 81.679 150.471 C 87.529 150.035 94.46600000000001 147.429 96.634 142.42600000000002 C 97.935 139.163 96.198 131.77200000000002 91.433 126.98700000000002 C 86.01400000000001 121.33100000000002 82.114 113.93600000000002 79.94300000000001 108.28400000000002 C 77.561 101.75900000000001 76.69100000000002 89.58100000000002 78.43100000000001 82.18600000000002 C 81.24300000000001 70.87900000000002 95.77200000000002 40.86900000000002 136.52 42.82700000000002 C 145.40800000000002 43.04100000000002 158.413 47.60900000000002 164.912 51.74200000000002 L 149.739 80.66400000000002 C 132.616 70.44500000000002 122.214 74.14300000000001 118.309 83.49200000000002 C 114.413 92.84600000000002 120.91499999999999 101.76000000000002 126.97999999999999 108.93800000000002 C 134.566 117.63500000000002 140.637 126.98900000000002 140.637 138.079 C 140.637 163.959 112.891 184.833 78.85900000000001 184.833 C 68.673 184.833 59.13700000000001 182.88 50.89800000000001 179.61599999999999 L 45.69700000000001 195.05399999999997 M 239.91 182.006 L 293.014 182.006 C 311.656 182.006 342.00100000000003 175.698 351.324 147.429 C 356.743 131.119 346.985 115.675 337.01800000000003 110.459 C 347.63800000000003 106.543 358.04400000000004 93.279 361.079 82.83800000000001 C 369.531 53.04600000000001 351.76 44.56300000000001 330.946 44.56300000000001 L 285.64500000000004 44.56300000000001 L 239.91 182.006 M 296.701 127.203 C 309.706 126.551 317.511 131.55 315.343 140.469 C 313.39300000000003 149.16899999999998 306.238 152.21099999999998 298.434 152.21099999999998 L 288.24800000000005 152.21099999999998 L 296.701 127.20299999999999 z M 303.63800000000003 98.277 L 311.87300000000005 74.358 L 318.15400000000005 74.358 C 323.3550000000001 74.358 332.89500000000004 75.22800000000001 328.34200000000004 86.97 C 324.446 96.324 314.47100000000006 98.277 308.838 98.277 L 303.63800000000003 98.277 z" stroke-linecap="round" />
</g>
		<g transform="matrix(3.24 0 0 3.24 865.85 211.28)"  >
<path style="stroke: none; stroke-width: 1; stroke-dasharray: none; stroke-linecap: butt; stroke-dashoffset: 0; stroke-linejoin: miter; stroke-miterlimit: 4; fill: rgb(255,242,0); fill-rule: nonzero; opacity: 1;" vector-effect="non-scaling-stroke"  transform=" translate(-653.37, -176.24)" d="M 651.965 175.698 L 651.965 173.305 L 653.48 173.305 C 654.35 173.305 655.212 173.523 655.212 174.392 C 655.212 175.698 654.346 175.698 653.48 175.698 L 651.965 175.698 M 651.965 176.785 L 653.2660000000001 176.785 L 655.4300000000001 180.049 L 656.735 180.049 L 654.568 176.785 C 655.651 176.56799999999998 656.518 175.916 656.518 174.611 C 656.518 172.87099999999998 655.6510000000001 172.218 653.702 172.218 L 650.886 172.218 L 650.886 180.048 L 651.9699999999999 180.048 L 651.9699999999999 176.784 L 651.9649999999999 176.784 z M 653.4830000000001 183.094 C 657.166 183.094 660.2030000000001 180.049 660.2030000000001 176.13299999999998 C 660.2030000000001 172.219 657.166 169.391 653.4830000000001 169.391 C 649.5830000000001 169.391 646.5450000000001 172.219 646.5450000000001 176.13299999999998 C 646.546 180.04899999999998 649.58 183.094 653.4830000000001 183.094 z M 647.8460000000001 176.13299999999998 C 647.8460000000001 172.87099999999998 650.2320000000001 170.47899999999998 653.4830000000001 170.47899999999998 C 656.517 170.47899999999998 658.902 172.87199999999999 658.902 176.13299999999998 C 658.902 179.397 656.517 182.00599999999997 653.4830000000001 182.00599999999997 C 650.2320000000001 182.00599999999997 647.8460000000001 179.39599999999996 647.8460000000001 176.13299999999998 z" stroke-linecap="round" />
</g>
</g>
</g>
</svg>

<svg xmlns="http://www.w3.org/2000/svg" width="2500" height="719" viewBox="0 0.001 772 221.999"><path d="M653.483 159.389c9.319 0 17.123 7.609 17.123 16.963 0 9.349-7.587 16.962-17.123 16.962h.218l-6.499.218h-9.108l-111.197.217c-1.733 0-3.034-1.521-2.6-3.262l4.545-18.051h-4.335l-11.052 20.443c-.217.652-1.515 1.305-2.163 1.305l-164.085.216c-1.519 0-2.606-1.305-2.385-2.827l1.511-15.222c-16.684 14.352-39.664 17.614-53.322 17.614h-67.193c-1.95 0-3.034-1.522-2.385-3.479l2.385-7.175c-11.052 8.262-25.793 14.353-45.732 14.353-23.408 0-37.283-8.701-43.133-22.184-14.307 13.918-36.2 21.966-58.097 21.966-6.716 0-13.437-.653-19.722-2.175l-8.021 24.793c-.87 2.389-3.255 2.605-4.553.432L.392 145.688c-.874-1.306-.222-3.046 1.298-3.698l66.979-27.621c-.217-.434-.435-1.083-.652-1.518-3.469-8.919-4.117-23.924-1.95-33.495 3.469-14.787 21.89-51.54 71.098-49.365 9.972.435 22.978 4.568 31.647 9.353l2.599-6.308c.435-.87 1.519-1.74 2.606-1.74l156.929-.435c10.621 0 22.111 2.393 30.777 8.266l.652-5.438c0-1.305 1.298-2.175 2.382-2.175h279.398c1.306 0 2.386 1.088 2.607 2.393l3.469 27.617c11.051-11.959 19.938-19.351 31.211-25.007 8.889-4.568 19.943-5.438 27.312-5.655h3.687L721.76 1.94c.649-2.393 3.251-2.61 4.549-.435l45.301 73.506c.87 1.522.218 3.045-1.301 3.698l-78.681 31.75c-2.385 1.087-4.121-.653-3.469-3.045l2.385-7.396c-5.418 5.438-11.051 11.963-16.691 19.355-7.582 10.006-17.119 30.014-19.725 37.623l-.649 1.957" fill="#005543"/><path d="M711.789 73.706l-5.201 16.962 47.904-19.355-27.309-44.366-5.419 16.963s-22.328-2.171-34.463 3.915c-10.189 5.221-18.211 11.746-29.697 24.358-5.854 6.308-16.257 21.748-16.257 21.748l-6.502-50.021h-34.902l11.922 78.073-20.81 59.589h41.188s9.104-26.099 9.968-28.704c2.819-8.48 13.005-30.01 21.457-41.104 14.959-19.573 33.166-38.493 48.121-38.058" fill="#fff200"/><path d="M236.227 45.214l-28.831 86.557c-1.305 3.477-2.606 8.044-4.987 11.959-2.164 3.698-5.419 6.521-10.838 6.521-4.987 0-6.285-2.823-6.285-6.738.218-3.698 1.954-8.266 3.252-11.964l28.83-86.335h-37.065l-30.128 89.816c-5.419 16.527-13.006 49.8 29.91 49.8 42.92 0 57.653-33.272 63.294-49.8l29.914-89.816h-37.066" fill="#fff"/><path d="M455.367 181.571l73.265-137.444H492.65l-40.104 85.252c1.732-10.006 14.738-85.252 14.738-85.252H435.42s-36.849 75.681-41.184 85.904l16.257-85.904h-36.631l-15.177 137.444h35.982l39.668-85.9c-1.949 9.35-14.955 85.9-14.955 85.9h35.987M531.666 131.336h18.642l8.235-50.239-26.877 50.239m12.787-87.209h50.507l-16.257 137.662h-39.02l4.987-22.184h-27.529l-11.921 21.748h-34.463l73.696-137.226z" fill="#fff200"/><path d="M45.697 195.054l-28.182-45.885 49.64-20.442-5.423 17.18c6.075 3.911 13.227 4.999 19.947 4.564 5.85-.436 12.787-3.042 14.955-8.045 1.301-3.263-.436-10.654-5.201-15.439-5.419-5.656-9.319-13.051-11.49-18.703-2.382-6.525-3.252-18.703-1.512-26.098 2.812-11.307 17.341-41.317 58.089-39.359 8.888.214 21.893 4.782 28.392 8.915l-15.173 28.922c-17.123-10.219-27.525-6.521-31.43 2.828-3.896 9.354 2.606 18.268 8.671 25.446 7.586 8.697 13.657 18.051 13.657 29.141 0 25.88-27.746 46.754-61.778 46.754-10.186 0-19.722-1.953-27.961-5.217l-5.201 15.438M239.91 182.006h53.104c18.642 0 48.987-6.308 58.31-34.577 5.419-16.31-4.339-31.754-14.306-36.97 10.62-3.916 21.026-17.18 24.061-27.621 8.452-29.792-9.319-38.275-30.133-38.275h-45.301L239.91 182.006m56.791-54.803c13.005-.652 20.81 4.347 18.642 13.266-1.95 8.7-9.105 11.742-16.909 11.742h-10.186l8.453-25.008zm6.937-28.926l8.235-23.919h6.281c5.201 0 14.741.87 10.188 12.612-3.896 9.354-13.871 11.307-19.504 11.307h-5.2z" fill="#fff"/><path d="M651.965 175.698v-2.393h1.515c.87 0 1.732.218 1.732 1.087 0 1.306-.866 1.306-1.732 1.306h-1.515m0 1.087h1.301l2.164 3.264h1.305l-2.167-3.264c1.083-.217 1.95-.869 1.95-2.174 0-1.74-.867-2.393-2.816-2.393h-2.816v7.83h1.084v-3.264h-.005zm1.518 6.309c3.683 0 6.72-3.045 6.72-6.961 0-3.914-3.037-6.742-6.72-6.742-3.9 0-6.938 2.828-6.938 6.742.001 3.916 3.035 6.961 6.938 6.961zm-5.637-6.961c0-3.262 2.386-5.654 5.637-5.654 3.034 0 5.419 2.393 5.419 5.654 0 3.264-2.385 5.873-5.419 5.873-3.251 0-5.637-2.61-5.637-5.873z" fill="#fff200"/></svg>
